papirus/48x48/devices/input-touchpad.svg

<?xml version="1.0" encoding="UTF-8" standalone="no"?>
<!-- Created with Inkscape (http://www.inkscape.org/) -->
<svg id="svg2817" xmlns:rdf="http://www.w3.org/1999/02/22-rdf-syntax-ns#" xmlns="http://www.w3.org/2000/svg" height="48" width="48" version="1.0" xmlns:cc="http://creativecommons.org/ns#" xmlns:xlink="http://www.w3.org/1999/xlink" xmlns:dc="http://purl.org/dc/elements/1.1/">
 <metadata id="metadata57">
  <rdf:RDF>
   <cc:Work rdf:about="">
    <dc:format>image/svg+xml</dc:format>
    <dc:type rdf:resource="http://purl.org/dc/dcmitype/StillImage"/>
    <dc:title/>
   </cc:Work>
  </rdf:RDF>
 </metadata>
 <rect id="rect4203" ry="2" rx="2" transform="matrix(0,-1,-1,0,0,0)" height="40" width="40" y="-44" x="-44" fill="#919191"/>
 <path id="rect4592" opacity=".2" d="m6 4c-1.108 0-2 0.892-2 2v1c0-1.108 0.892-2 2-2h36c1.108 0 2 0.892 2 2v-1c0-1.108-0.892-2-2-2h-36z" fill="#fff"/>
 <rect id="rect4186" rx="2" ry="2" height="10" width="18" y="32" x="5" fill="#646464"/>
 <rect id="rect4188" rx="2" ry="2" height="10" width="18" y="32" x="25" fill="#646464"/>
 <rect id="rect4190" opacity=".2" height="1" width="6" y="10" x="37"/>
 <rect id="rect4192" opacity=".2" height="1" width="6" y="13" x="37"/>
 <rect id="rect4194" opacity=".2" height="1" width="6" y="16" x="37"/>
 <rect id="rect4204" opacity=".2" height="1" width="6" y="19" x="37"/>
 <rect id="rect4206" opacity=".2" height="1" width="6" y="22" x="37"/>
 <rect id="rect4208" opacity=".2" height="1" width="6" y="25" x="37"/>
 <path id="rect4182" opacity=".3" d="m4 41v1c0 1.108 0.892 2 2 2h36c1.108 0 2-0.892 2-2v-1c0 1.108-0.892 2-2 2h-36c-1.108 0-2-0.892-2-2z"/>
</svg>

<?xml version="1.0" encoding="UTF-8" standalone="no"?>
<!-- Created with Inkscape (http://www.inkscape.org/) -->

<svg
   xmlns:dc="http://purl.org/dc/elements/1.1/"
   xmlns:cc="http://creativecommons.org/ns#"
   xmlns:rdf="http://www.w3.org/1999/02/22-rdf-syntax-ns#"
   xmlns:svg="http://www.w3.org/2000/svg"
   xmlns="http://www.w3.org/2000/svg"
   xmlns:xlink="http://www.w3.org/1999/xlink"
   xmlns:sodipodi="http://sodipodi.sourceforge.net/DTD/sodipodi-0.dtd"
   xmlns:inkscape="http://www.inkscape.org/namespaces/inkscape"
   id="svg2817"
   height="48"
   width="48"
   version="1.0"
   inkscape:version="0.91 r"
   sodipodi:docname="input-touchpad.svg">
  <metadata
     id="metadata57">
    <rdf:RDF>
      <cc:Work
         rdf:about="">
        <dc:format>image/svg+xml</dc:format>
        <dc:type
           rdf:resource="http://purl.org/dc/dcmitype/StillImage" />
        <dc:title />
      </cc:Work>
    </rdf:RDF>
  </metadata>
  <sodipodi:namedview
     pagecolor="#ffffff"
     bordercolor="#666666"
     borderopacity="1"
     objecttolerance="10"
     gridtolerance="10"
     guidetolerance="10"
     inkscape:pageopacity="0"
     inkscape:pageshadow="2"
     inkscape:window-width="1600"
     inkscape:window-height="840"
     id="namedview55"
     showgrid="false"
     inkscape:zoom="8.6599296"
     inkscape:cx="6.1953884"
     inkscape:cy="27.390138"
     inkscape:window-x="-4"
     inkscape:window-y="34"
     inkscape:window-maximized="1"
     inkscape:current-layer="svg2817" />
  <defs
     id="defs2819">
    <linearGradient
       id="linearGradient2815"
       y2="17.5"
       spreadMethod="reflect"
       gradientUnits="userSpaceOnUse"
       x2="3.0052"
       y1="17.5"
       x1="44.995">
      <stop
         id="stop3277"
         style="stop-color:#fff;stop-opacity:0"
         offset="0" />
      <stop
         id="stop3283"
         style="stop-color:#fff"
         offset=".245" />
      <stop
         id="stop3285"
         style="stop-color:#fff"
         offset=".77350" />
      <stop
         id="stop3279"
         style="stop-color:#fff;stop-opacity:0"
         offset="1" />
    </linearGradient>
    <linearGradient
       id="linearGradient2813"
       y2="8"
       gradientUnits="userSpaceOnUse"
       x2="26"
       y1="22"
       x1="26">
      <stop
         id="stop3829"
         style="stop-color:#fff"
         offset="0" />
      <stop
         id="stop4295"
         style="stop-color:#fff"
         offset=".30213" />
      <stop
         id="stop4293"
         style="stop-color:#fff;stop-opacity:.69020"
         offset=".34361" />
      <stop
         id="stop3832"
         style="stop-color:#fff;stop-opacity:0"
         offset="1" />
    </linearGradient>
    <linearGradient
       id="linearGradient2811"
       y2="45.934"
       gradientUnits="userSpaceOnUse"
       x2="43.007"
       gradientTransform="matrix(1.2822 0 0 1.1747 -6.0702 -5.3032)"
       y1="30.555"
       x1="23.452">
      <stop
         id="stop4561"
         style="stop-color:#fff;stop-opacity:0"
         offset="0" />
      <stop
         id="stop4563"
         style="stop-color:#fff;stop-opacity:0"
         offset="1" />
    </linearGradient>
    <linearGradient
       id="linearGradient2809"
       y2="45.042"
       gradientUnits="userSpaceOnUse"
       x2="15.464"
       y1="7.9757"
       x1="15.464">
      <stop
         id="stop3297"
         style="stop-color:#c9af8b"
         offset="0" />
      <stop
         id="stop3299"
         style="stop-color:#ad8757"
         offset=".23942" />
      <stop
         id="stop3301"
         style="stop-color:#c2a57f"
         offset=".27582" />
      <stop
         id="stop3303"
         style="stop-color:#9d7d53"
         offset="1" />
    </linearGradient>
    <linearGradient
       id="linearGradient2807"
       y2="37.277"
       gradientUnits="userSpaceOnUse"
       x2="24.997"
       gradientTransform="matrix(1.2822 0 0 1.5573 -6.0702 -15.291)"
       y1="15.378"
       x1="24.823">
      <stop
         id="stop3201"
         style="stop-color:#dac197"
         offset="0" />
      <stop
         id="stop3203"
         style="stop-color:#c1a581"
         offset=".23942" />
      <stop
         id="stop3205"
         style="stop-color:#dbc298"
         offset=".27582" />
      <stop
         id="stop3207"
         style="stop-color:#a68b60"
         offset="1" />
    </linearGradient>
    <radialGradient
       id="radialGradient2805"
       xlink:href="#linearGradient3681"
       gradientUnits="userSpaceOnUse"
       cy="41.5"
       cx="5"
       gradientTransform="matrix(.59382 0 0 1.5367 41.141 -103.94)"
       r="5" />
    <linearGradient
       id="linearGradient2803"
       y2="35"
       gradientUnits="userSpaceOnUse"
       x2="17.554"
       gradientTransform="matrix(1.757 0 0 1.397 -17.394 -16.412)"
       y1="46"
       x1="17.554">
      <stop
         id="stop3705"
         style="stop-opacity:0"
         offset="0" />
      <stop
         id="stop3711"
         offset=".5" />
      <stop
         id="stop3707"
         style="stop-opacity:0"
         offset="1" />
    </linearGradient>
    <linearGradient
       id="linearGradient3681">
      <stop
         id="stop3683"
         offset="0" />
      <stop
         id="stop3685"
         style="stop-opacity:0"
         offset="1" />
    </linearGradient>
    <radialGradient
       id="radialGradient2801"
       xlink:href="#linearGradient3681"
       gradientUnits="userSpaceOnUse"
       cy="41.5"
       cx="5"
       gradientTransform="matrix(.59382 0 0 1.5367 -6.6595 -103.94)"
       r="5" />
    <linearGradient
       id="linearGradient2789"
       y2="25.411"
       gradientUnits="userSpaceOnUse"
       x2="57.726"
       gradientTransform="matrix(0 .71282 -.67402 0 50.746 15.046)"
       y1="25.411"
       x1="13.472">
      <stop
         id="stop4224"
         style="stop-color:#fff"
         offset="0" />
      <stop
         id="stop4226"
         style="stop-color:#fff;stop-opacity:0"
         offset="1" />
    </linearGradient>
    <linearGradient
       id="linearGradient2787"
       y2="20.71"
       gradientUnits="userSpaceOnUse"
       x2=".81572"
       gradientTransform="matrix(0 -.61460 -.58384 0 46.949 46.633)"
       y1="20.71"
       x1="28.315">
      <stop
         id="stop2266"
         style="stop-color:#d7e866"
         offset="0" />
      <stop
         id="stop2268"
         style="stop-color:#8cab2a"
         offset="1" />
    </linearGradient>
    <radialGradient
       r="5"
       gradientTransform="matrix(.59382 0 0 1.5367 41.141 -103.94)"
       cx="5"
       cy="41.5"
       gradientUnits="userSpaceOnUse"
       xlink:href="#linearGradient3681"
       id="radialGradient2805-9" />
    <radialGradient
       r="5"
       gradientTransform="matrix(.59382 0 0 1.5367 -6.6595 -103.94)"
       cx="5"
       cy="41.5"
       gradientUnits="userSpaceOnUse"
       xlink:href="#linearGradient3681"
       id="radialGradient2801-3" />
  </defs>
  <rect
     transform="matrix(0,-1,-1,0,0,0)"
     style="fill:#919191;fill-opacity:1;stroke:none"
     id="rect4203"
     width="40"
     height="40"
     x="-44"
     y="-44"
     rx="2"
     ry="2" />
  <path
     style="opacity:0.2;fill:#ffffff;fill-opacity:1;stroke:none"
     d="M 6,4 C 4.892,4 4,4.892 4,6 L 4,7 C 4,5.892 4.892,5 6,5 l 36,0 c 1.108,0 2,0.892 2,2 L 44,6 C 44,4.892 43.108,4 42,4 L 6,4 Z"
     id="rect4592"
     inkscape:connector-curvature="0" />
  <rect
     style="opacity:1;fill:#646464;fill-opacity:1;fill-rule:nonzero;stroke:none;stroke-width:1;stroke-linecap:round;stroke-linejoin:round;stroke-miterlimit:4;stroke-dasharray:none;stroke-dashoffset:0;stroke-opacity:1"
     id="rect4186"
     width="18"
     height="10"
     x="5"
     y="32"
     rx="2"
     ry="2" />
  <rect
     ry="2"
     rx="2"
     y="32"
     x="25"
     height="10"
     width="18"
     id="rect4188"
     style="opacity:1;fill:#646464;fill-opacity:1;fill-rule:nonzero;stroke:none;stroke-width:1;stroke-linecap:round;stroke-linejoin:round;stroke-miterlimit:4;stroke-dasharray:none;stroke-dashoffset:0;stroke-opacity:1" />
  <rect
     style="opacity:0.2;fill:#000000;fill-opacity:1;fill-rule:nonzero;stroke:none;stroke-width:1;stroke-linecap:round;stroke-linejoin:round;stroke-miterlimit:4;stroke-dasharray:none;stroke-dashoffset:0;stroke-opacity:1"
     id="rect4190"
     width="6"
     height="1"
     x="37"
     y="10" />
  <rect
     y="13"
     x="37"
     height="1"
     width="6"
     id="rect4192"
     style="opacity:0.2;fill:#000000;fill-opacity:1;fill-rule:nonzero;stroke:none;stroke-width:1;stroke-linecap:round;stroke-linejoin:round;stroke-miterlimit:4;stroke-dasharray:none;stroke-dashoffset:0;stroke-opacity:1" />
  <rect
     style="opacity:0.2;fill:#000000;fill-opacity:1;fill-rule:nonzero;stroke:none;stroke-width:1;stroke-linecap:round;stroke-linejoin:round;stroke-miterlimit:4;stroke-dasharray:none;stroke-dashoffset:0;stroke-opacity:1"
     id="rect4194"
     width="6"
     height="1"
     x="37"
     y="16" />
  <rect
     y="19"
     x="37"
     height="1"
     width="6"
     id="rect4204"
     style="opacity:0.2;fill:#000000;fill-opacity:1;fill-rule:nonzero;stroke:none;stroke-width:1;stroke-linecap:round;stroke-linejoin:round;stroke-miterlimit:4;stroke-dasharray:none;stroke-dashoffset:0;stroke-opacity:1" />
  <rect
     style="opacity:0.2;fill:#000000;fill-opacity:1;fill-rule:nonzero;stroke:none;stroke-width:1;stroke-linecap:round;stroke-linejoin:round;stroke-miterlimit:4;stroke-dasharray:none;stroke-dashoffset:0;stroke-opacity:1"
     id="rect4206"
     width="6"
     height="1"
     x="37"
     y="22" />
  <rect
     y="25"
     x="37"
     height="1"
     width="6"
     id="rect4208"
     style="opacity:0.2;fill:#000000;fill-opacity:1;fill-rule:nonzero;stroke:none;stroke-width:1;stroke-linecap:round;stroke-linejoin:round;stroke-miterlimit:4;stroke-dasharray:none;stroke-dashoffset:0;stroke-opacity:1" />
  <path
     style="fill:#000000;fill-opacity:1;stroke:none;opacity:0.3"
     d="M 4 41 L 4 42 C 4 43.108 4.892 44 6 44 L 42 44 C 43.108 44 44 43.108 44 42 L 44 41 C 44 42.108 43.108 43 42 43 L 6 43 C 4.892 43 4 42.108 4 41 z "
     id="rect4182" />
</svg>
